inst/assets/svg/wi-sprinkle.svg

<?xml version="1.0" encoding="UTF-8"?>
<svg xmlns="http://www.w3.org/2000/svg" xmlns:xlink="http://www.w3.org/1999/xlink" width="30pt" height="30pt" viewBox="0 0 30 30" version="1.1">
<g id="surface886">
<path style=" stroke:none;fill-rule:nonzero;fill:rgb(0%,0%,0%);fill-opacity:1;" d="M 4.640625 16.910156 C 4.640625 15.761719 5 14.738281 5.71875 13.839844 C 6.441406 12.941406 7.351563 12.371094 8.449219 12.109375 C 8.761719 10.75 9.460938 9.628906 10.550781 8.761719 C 11.640625 7.890625 12.898438 7.449219 14.308594 7.449219 C 15.691406 7.449219 16.910156 7.878906 17.988281 8.71875 C 19.058594 9.570313 19.769531 10.660156 20.101563 12 L 20.410156 12 C 21.300781 12 22.128906 12.21875 22.890625 12.648438 C 23.648438 13.078125 24.261719 13.679688 24.699219 14.429688 C 25.140625 15.179688 25.371094 16.011719 25.371094 16.898438 C 25.371094 18.238281 24.910156 19.390625 23.988281 20.351563 C 23.070313 21.308594 21.941406 21.820313 20.609375 21.859375 C 20.480469 21.859375 20.410156 21.800781 20.410156 21.691406 L 20.410156 20.359375 C 20.410156 20.238281 20.480469 20.179688 20.609375 20.179688 C 21.46875 20.140625 22.191406 19.800781 22.789063 19.160156 C 23.390625 18.519531 23.691406 17.769531 23.691406 16.898438 C 23.691406 16.03125 23.371094 15.28125 22.710938 14.640625 C 22.058594 14 21.289063 13.679688 20.398438 13.679688 L 18.800781 13.679688 C 18.679688 13.679688 18.609375 13.621094 18.609375 13.511719 L 18.539063 12.929688 C 18.429688 11.859375 17.96875 10.949219 17.160156 10.21875 C 16.339844 9.488281 15.390625 9.121094 14.308594 9.121094 C 13.21875 9.121094 12.261719 9.480469 11.449219 10.210938 C 10.640625 10.941406 10.179688 11.839844 10.070313 12.921875 L 10.011719 13.460938 C 10.011719 13.578125 9.941406 13.640625 9.808594 13.640625 L 9.28125 13.671875 C 8.460938 13.710938 7.769531 14.039063 7.191406 14.671875 C 6.609375 15.300781 6.328125 16.039063 6.328125 16.890625 C 6.328125 17.761719 6.628906 18.511719 7.230469 19.148438 C 7.828125 19.789063 8.558594 20.128906 9.410156 20.171875 C 9.519531 20.171875 9.578125 20.230469 9.578125 20.351563 L 9.578125 21.679688 C 9.578125 21.789063 9.519531 21.851563 9.410156 21.851563 C 8.070313 21.789063 6.941406 21.28125 6.011719 20.320313 C 5.078125 19.359375 4.640625 18.238281 4.640625 16.910156 Z M 10.570313 17.789063 C 10.570313 17.550781 10.691406 17.21875 10.941406 16.800781 C 11.179688 16.378906 11.410156 16.050781 11.621094 15.789063 C 11.828125 15.550781 11.960938 15.410156 12 15.371094 L 12.359375 15.769531 C 12.621094 16.050781 12.859375 16.378906 13.078125 16.789063 C 13.300781 17.191406 13.410156 17.53125 13.410156 17.789063 C 13.410156 18.179688 13.28125 18.511719 13.011719 18.769531 C 12.738281 19.03125 12.410156 19.160156 12.011719 19.160156 C 11.621094 19.160156 11.28125 19.03125 11 18.761719 C 10.710938 18.5 10.570313 18.171875 10.570313 17.789063 Z M 13.550781 21.78125 C 13.550781 21.5 13.628906 21.191406 13.789063 20.820313 C 13.949219 20.449219 14.140625 20.121094 14.378906 19.800781 C 14.558594 19.539063 14.78125 19.261719 15.050781 18.960938 C 15.308594 18.660156 15.511719 18.441406 15.648438 18.308594 C 15.71875 18.25 15.800781 18.171875 15.890625 18.078125 L 16.128906 18.308594 C 16.511719 18.640625 16.929688 19.128906 17.398438 19.769531 C 17.640625 20.101563 17.828125 20.449219 17.988281 20.808594 C 18.148438 21.171875 18.21875 21.488281 18.21875 21.78125 C 18.21875 22.421875 17.988281 22.96875 17.539063 23.429688 C 17.089844 23.890625 16.53125 24.109375 15.878906 24.109375 C 15.238281 24.109375 14.691406 23.878906 14.230469 23.441406 C 13.769531 22.980469 13.550781 22.429688 13.550781 21.78125 Z M 15.019531 15.121094 C 15.019531 14.699219 15.339844 14.171875 15.988281 13.519531 L 16.230469 13.769531 C 16.410156 13.980469 16.558594 14.21875 16.710938 14.480469 C 16.851563 14.738281 16.929688 14.949219 16.929688 15.121094 C 16.929688 15.378906 16.839844 15.601563 16.648438 15.78125 C 16.46875 15.960938 16.25 16.058594 15.988281 16.058594 C 15.71875 16.058594 15.488281 15.96875 15.300781 15.78125 C 15.109375 15.601563 15.019531 15.378906 15.019531 15.121094 Z M 15.019531 15.121094 "/>
</g>
</svg>

<?xml version="1.0" encoding="utf-8"?>
<!-- Generator: Adobe Illustrator 22.0.1, SVG Export Plug-In . SVG Version: 6.00 Build 0)  -->
<svg version="1.1" id="Layer_1" xmlns="http://www.w3.org/2000/svg" xmlns:xlink="http://www.w3.org/1999/xlink" x="0px" y="0px"
	 viewBox="0 0 30 30" style="enable-background:new 0 0 30 30;" xml:space="preserve">
<path d="M4.64,16.91c0-1.15,0.36-2.17,1.08-3.07c0.72-0.9,1.63-1.47,2.73-1.73c0.31-1.36,1.01-2.48,2.1-3.35s2.35-1.31,3.76-1.31
	c1.38,0,2.6,0.43,3.68,1.27c1.07,0.85,1.78,1.94,2.11,3.28h0.31c0.89,0,1.72,0.22,2.48,0.65s1.37,1.03,1.81,1.78
	c0.44,0.75,0.67,1.58,0.67,2.47c0,1.34-0.46,2.49-1.38,3.45s-2.05,1.47-3.38,1.51c-0.13,0-0.2-0.06-0.2-0.17v-1.33
	c0-0.12,0.07-0.18,0.2-0.18c0.86-0.04,1.58-0.38,2.18-1.02s0.9-1.39,0.9-2.26s-0.32-1.62-0.98-2.26c-0.65-0.64-1.42-0.96-2.31-0.96
	h-1.6c-0.12,0-0.19-0.06-0.19-0.17l-0.07-0.58c-0.11-1.07-0.57-1.98-1.38-2.71c-0.82-0.73-1.77-1.1-2.85-1.1
	c-1.09,0-2.05,0.36-2.86,1.09c-0.81,0.73-1.27,1.63-1.38,2.71l-0.06,0.54c0,0.12-0.07,0.18-0.2,0.18l-0.53,0.03
	c-0.82,0.04-1.51,0.37-2.09,1s-0.86,1.37-0.86,2.22c0,0.87,0.3,1.62,0.9,2.26s1.33,0.98,2.18,1.02c0.11,0,0.17,0.06,0.17,0.18v1.33
	c0,0.11-0.06,0.17-0.17,0.17c-1.34-0.06-2.47-0.57-3.4-1.53S4.64,18.24,4.64,16.91z M10.57,17.79c0-0.24,0.12-0.57,0.37-0.99
	c0.24-0.42,0.47-0.75,0.68-1.01c0.21-0.24,0.34-0.38,0.38-0.42l0.36,0.4c0.26,0.28,0.5,0.61,0.72,1.02c0.22,0.4,0.33,0.74,0.33,1
	c0,0.39-0.13,0.72-0.4,0.98c-0.27,0.26-0.6,0.39-1,0.39c-0.39,0-0.73-0.13-1.01-0.4C10.71,18.5,10.57,18.17,10.57,17.79z
	 M13.55,21.78c0-0.28,0.08-0.59,0.24-0.96s0.35-0.7,0.59-1.02c0.18-0.26,0.4-0.54,0.67-0.84c0.26-0.3,0.46-0.52,0.6-0.65
	c0.07-0.06,0.15-0.14,0.24-0.23l0.24,0.23c0.38,0.33,0.8,0.82,1.27,1.46c0.24,0.33,0.43,0.68,0.59,1.04s0.23,0.68,0.23,0.97
	c0,0.64-0.23,1.19-0.68,1.65s-1.01,0.68-1.66,0.68c-0.64,0-1.19-0.23-1.65-0.67C13.77,22.98,13.55,22.43,13.55,21.78z M15.02,15.12
	c0-0.42,0.32-0.95,0.97-1.6l0.24,0.25c0.18,0.21,0.33,0.45,0.48,0.71c0.14,0.26,0.22,0.47,0.22,0.64c0,0.26-0.09,0.48-0.28,0.66
	c-0.18,0.18-0.4,0.28-0.66,0.28c-0.27,0-0.5-0.09-0.69-0.28C15.11,15.6,15.02,15.38,15.02,15.12z"/>
</svg>
